X:1
T:Is It in Me?
T:Is It in Me?
T:Philip Paul Bliss
T:Philip Paul Bliss, 1875
T:Public Domain Courtesy of the Cyber Hymnal™
T:Public Domain Courtesy of the Cyber Hymnal™
C:Philip Paul Bliss
Z:Public Domain
Z:Courtesy of the Cyber Hymnal™
%%score ( 1 2 ) ( 3 4 )
L:1/8
Q:1/4=94
M:6/8
K:A
V:1 treble 
V:2 treble 
V:3 bass 
V:4 bass 
V:1
 E | [CA][CA][CA] [CA][DG][EA] | F[DF][DF] [DF]3 | [DG][DF][DG] [DB]3 | %4
w: 1.~There’s|sin in the camp, there is|trea- son to- day!|Is it in me?|
w: 2.~I|come in my need to the|life giv- ing Word;|Is it for me?|
w: 3.~There’s|peace in be- liev- ing, what-|ev- er be- tide;|Is it for me?|
 [CA][B,G][CA] !fermata![Ec]2 E | [CA][CA][CA] [CA][DG][EA] | F[DF][DF] [DF]3 | %7
w: Is it in me? There’s|cause in our ranks for de-|feat and de- lay;|
w: Is it for me? By|faith in its power let my|soul be res- tored;|
w: Is it for me? There’s|rest to the soul that in|Je- sus a- bides;|
 [DG][DF][DG] [DB]2 [DG] | [CA]6 | FFF F[FG][FA] | [^Ec][Ec][Ec] [Ec]3 | FF[FG] [FA][FB][Fc] | %12
w: Is it, O Lord, in|me?|Some- thing of self- ish- ness,|gar- ments or gold,|Some- thing of hin- drance in|
w: Is it, O Lord, for|me?|Par- don and pu- ri- ty|Je- sus will give,|Life ev- er- last- ing to|
w: Is it, O Lord, for|me?|Sure- ly the work of re-|demp- tion is done;|Sure- ly the Fa- ther is|
 [^DB][DA][DF] E3 | [CE][CA][CA] [CA][DG][EA] | F[DF][DF] [DF]3 | [DG][CF][CG] [DB]2 [DG] | %16
w: young or in old,|Some- thing why God doth His|bless- ing with- hold—|Is it, O Lord, in|
w: all who be- lieve;|Oh, that His power I may|ful- ly re- ceive,|Is it, O Lord, for|
w: pleased with the Son;|Sure- ly the saved and the|Sav- ior are one—|Sure- ly ’tis all for|
 [CA]3- [CA]2 z | [Ec][Ec][Ec] [EB]3 | [^DA][DA][DA] [EG]3 | [EA][EB][Ec] [DB]2 [B,G] | %20
w: me? *|Is it in me?|Is it in me?|Is it, O Lord, in|
w: me? *|Is it for me?|Is it for me?|Is it, O Lord, for|
w: me! *|A- ll for me!|A- ll for me!|Sure- ly ’tis all for|
 [CA]3- [CA]2 |] %21
w: me? *|
w: me? *|
w: me! *|
V:2
 E | x6 | F x5 | x6 | x5 E | x6 | F x5 | x6 | x6 | FFF F x2 | x6 | FF x4 | x3 E3 | x6 | F x5 | x6 | %16
 x6 | x6 | x6 | x6 | x5 |] %21
V:3
 E, | [A,,E,][A,,A,][A,,A,] [A,,A,][B,,E,][C,A,] | [D,A,][D,A,][D,A,] [D,D]3 | %3
 [E,B,][E,B,][E,B,] [E,G,]3 | [A,,A,][A,,E,][A,,A,] !fermata![A,,A,]2 E, | %5
 [A,,E,][A,,A,][A,,A,] [A,,A,][B,,E,][C,A,] | [D,A,][D,A,][D,A,] [D,D]3 | %7
 [E,B,][E,B,][E,B,] [E,G,]2 [E,B,] | [A,,A,]6 | [F,A,][F,A,][F,A,] [F,A,][F,G,]F, | %10
 [C,G,][C,G,][C,G,] [C,G,]3 | [F,A,][F,A,][F,G,] F,[F,G,][F,A,] | [B,,B,][B,,B,][B,,B,] [E,G,]3 | %13
 [A,,A,][A,,A,][A,,A,] [A,,A,][B,,E,][C,A,] | [D,A,][D,A,][D,A,] [D,D]3 | %15
 [E,B,][E,B,][E,B,] [E,G,]2 [E,B,] | [A,,A,]3- [A,,A,]2 z | A,A,A, [G,B,]3 | %18
 [F,B,][F,B,][F,B,] B,3 | [C,A,][B,,G,][A,,A,] [D,F,]2 E, | [A,,E,]3- [A,,E,]2 |] %21
V:4
 E, | x6 | x6 | x6 | x5 E, | x6 | x6 | x6 | x6 | x5 F, | x6 | x3 F, x2 | x6 | x6 | x6 | x6 | x6 | %17
 A,A,A, x3 | x3 E,2 D, | x5 E, | x5 |] %21

